img/svg/utbetalinger.svg

<?xml version="1.0" encoding="UTF-8"?>
<svg width="31px" height="30px" viewBox="0 0 31 30" version="1.1" xmlns="http://www.w3.org/2000/svg" xmlns:xlink="http://www.w3.org/1999/xlink">
    <!-- Generator: Sketch 48.1 (47250) - http://www.bohemiancoding.com/sketch -->
    <title>coin receive</title>
    <desc>Created with Sketch.</desc>
    <defs></defs>
    <g id="Søknader---lenke-til-dine-søknader" stroke="none" stroke-width="1" fill="none" fill-rule="evenodd" transform="translate(-216.000000, -741.000000)" stroke-linejoin="round">
        <g id="Inngang-tjeneste-horisontal--" transform="translate(192.000000, 710.000000)" stroke="#3E3832">
            <g id="coin-receive" transform="translate(25.000000, 32.000000)">
                <polygon id="Shape" points="0 17 5 17 5 28 0 28"></polygon>
                <path d="M5,24.984208 C18.8157895,29.428704 14.2105263,29.428704 30,21.809568 C28.6013158,20.4609809 27.4973684,20.1422471 26.0526316,20.539712 L20.2184211,22.4076702 M5,18 L8.94736842,18 C12.0434211,18 14.2105263,19.904784 14.8684211,20.539712 L18.8157895,20.539712 C20.9131579,20.539712 20.9131579,23.079424 18.8157895,23.079424 L11.5789474,23.079424" id="Shape" stroke-linecap="round"></path>
                <circle id="Oval" stroke-linecap="round" cx="22" cy="4" r="4"></circle>
                <circle id="Oval" stroke-linecap="round" cx="16" cy="13" r="4"></circle>
                <path d="M16,11.3333333 L16,14 M22.6666667,2 L22.6666667,4.66666667" id="Shape" stroke-linecap="round"></path>
            </g>
        </g>
    </g>
</svg>

<svg width="31" height="30" xmlns="http://www.w3.org/2000/svg"><g transform="translate(1 1)" stroke="#3E3832" fill="none" fill-rule="evenodd" stroke-linejoin="round"><path d="M0 17h5v11H0z"/><path d="M5 24.984c13.816 4.445 9.21 4.445 25-3.174-1.399-1.349-2.503-1.668-3.947-1.27l-5.835 1.868M5 18h3.947c3.096 0 5.264 1.905 5.921 2.54h3.948c2.097 0 2.097 2.54 0 2.54h-7.237" stroke-linecap="round"/><circle stroke-linecap="round" cx="22" cy="4" r="4"/><circle stroke-linecap="round" cx="16" cy="13" r="4"/><path d="M16 11.333V14m6.667-12v2.667" stroke-linecap="round"/></g></svg>
